TV/Source/Nova Action HD.svg

<svg height="42.170208mm" viewBox="0 0 162.83737 42.170012" width="162.84038mm" xmlns="http://www.w3.org/2000/svg" xmlns:xlink="http://www.w3.org/1999/xlink"><clipPath id="a"><path d="m289.4 605.78h20.976v9.317h-20.976z"/></clipPath><g fill="#f59b2d"><g clip-path="url(#a)" transform="matrix(7.5682 0 0 -7.5682 -2203.2102 4641.0246)"><g transform="translate(291.32 613.19)"><path d="m0 0h .418v-.219c.116.155.299.251.521.251.398 0 .672-.289.672-.685v-1.003h-.418v.929c0 .222-.161.38-.386.38s-.389-.158-.389-.38v-.929h-.418z" fill="#f59b2d"/></g><g transform="translate(294.06 611.89)"><path d="m0 0c .257 0 .453.206.453.479 0 .27-.196.476-.453.476s-.45-.206-.45-.476c0-.273.193-.479.45-.479m0 1.337c.501 0 .884-.373.884-.858 0-.489-.383-.862-.884-.862s-.884.373-.884.862c0 .485.383.858.884.858" fill="#f59b2d"/></g><g transform="translate(294.93 613.19)"><path d="m0 0h .45l.457-1.218.459 1.218h.421l-.659-1.656h-.469z" fill="#f59b2d"/></g><g transform="translate(297.59 611.89)"><path d="m0 0c .257 0 .453.206.453.479 0 .27-.196.476-.453.476s-.45-.206-.45-.476c0-.273.193-.479.45-.479m.453-.145c-.131-.148-.315-.238-.537-.238-.453 0-.8.373-.8.862 0 .485.347.858.8.858.222 0 .406-.09.537-.241v.209h.418v-1.655h-.418z" fill="#f59b2d"/></g><g transform="translate(292.36 608.98)"><path d="m0 0h .748l-.374.992zm-.022 1.834h.845l1.224-3.116h-.81l-.236.614h-1.25l-.232-.614h-.765z" fill="#f59b2d"/></g><g transform="translate(296.06 610.86)"><path d="m0 0c .739 0 1.26-.445 1.469-.903l-.703-.267c-.129.262-.406.476-.766.476-.49 0-.863-.397-.863-.908 0-.512.373-.908.863-.908.36 0 .637.213.766.476l.703-.267c-.209-.459-.73-.904-1.469-.904-.93 0-1.647.699-1.647 1.603 0 .903.717 1.602 1.647 1.602" fill="#f59b2d"/></g><g transform="translate(298.68 610.15)"><path d="m0 0h-.912v.668h2.581v-.668h-.912v-2.448h-.757z" fill="#f59b2d"/></g><path d="m300.66 610.82h.757v-3.116h-.757z"/><g transform="translate(303.51 608.35)"><path d="m0 0c .49 0 .863.396.863.908s-.373.908-.863.908-.863-.396-.863-.908.373-.908.863-.908m0 2.51c.93 0 1.647-.698 1.647-1.602 0-.903-.717-1.602-1.647-1.602s-1.647.699-1.647 1.602c0 .904.717 1.602 1.647 1.602" fill="#f59b2d"/></g><g transform="translate(305.61 610.82)"><path d="m0 0h .734l1.358-1.843v1.843h.757v-3.116h-.735l-1.357 1.843v-1.843h-.757z" fill="#f59b2d"/></g></g><path d="m137.53978 18.265281h2.9825v4.8289h5.2752v-4.8289h2.9825v12.3h-2.9825v-4.8388h-5.2752v4.8388h-2.9825z" stroke-width=".98954"/><path d="m156.26978 27.923581c2.0939 0 3.4772-1.4744 3.4772-3.5129 0-2.0582-1.3834-3.5129-3.4772-3.5129h-1.8603v7.0257zm-4.8517-9.6579h5.112c3.6573 0 6.3083 2.6717 6.3083 6.145s-2.651 6.145-6.3083 6.145h-5.112z" stroke-width=".98954"/></g></svg>

<?xml version="1.0" encoding="UTF-8" standalone="no"?>
<svg
   xmlns:dc="http://purl.org/dc/elements/1.1/"
   xmlns:cc="http://creativecommons.org/ns#"
   xmlns:rdf="http://www.w3.org/1999/02/22-rdf-syntax-ns#"
   xmlns:svg="http://www.w3.org/2000/svg"
   xmlns="http://www.w3.org/2000/svg"
   xmlns:sodipodi="http://sodipodi.sourceforge.net/DTD/sodipodi-0.dtd"
   xmlns:inkscape="http://www.inkscape.org/namespaces/inkscape"
   width="162.84038mm"
   height="42.170208mm"
   version="1.1"
   viewBox="0 0 162.83737 42.170012"
   id="svg64"
   sodipodi:docname="Nova Action HD - Dark.svg"
   inkscape:version="0.92.0 r15299">
  <metadata
     id="metadata68">
    <rdf:RDF>
      <cc:Work
         rdf:about="">
        <dc:format>image/svg+xml</dc:format>
        <dc:type
           rdf:resource="http://purl.org/dc/dcmitype/StillImage" />
        <dc:title></dc:title>
      </cc:Work>
    </rdf:RDF>
  </metadata>
  <sodipodi:namedview
     pagecolor="#ffffff"
     bordercolor="#666666"
     borderopacity="1"
     objecttolerance="10"
     gridtolerance="10"
     guidetolerance="10"
     inkscape:pageopacity="0"
     inkscape:pageshadow="2"
     inkscape:window-width="1920"
     inkscape:window-height="1017"
     id="namedview66"
     showgrid="false"
     fit-margin-top="0"
     fit-margin-left="0"
     fit-margin-right="0"
     fit-margin-bottom="0"
     inkscape:zoom="0.41763933"
     inkscape:cx="307.70926"
     inkscape:cy="79.559777"
     inkscape:window-x="-8"
     inkscape:window-y="-8"
     inkscape:window-maximized="1"
     inkscape:current-layer="svg64" />
  <defs
     id="defs8">
    <clipPath
       id="clipPath87485">
      <path
         d="m 289.4,605.78 h 20.976 v 9.317 H 289.4 Z"
         id="path2"
         inkscape:connector-curvature="0" />
    </clipPath>
    <clipPath
       id="clipPath87475">
      <path
         d="m 289.4,602.93 h 20.976 v 15.024 H 289.4 Z"
         id="path5"
         inkscape:connector-curvature="0" />
    </clipPath>
  </defs>
  <g
     clip-path="url(#clipPath87485)"
     id="g54"
     transform="matrix(7.5682,0,0,-7.5682,-2203.2102,4641.0246)"
     style="fill:#f59b2d;fill-opacity:1">
    <g
       transform="translate(291.32,613.19)"
       id="g18"
       style="fill:#f59b2d;fill-opacity:1">
      <path
         d="m 0,0 h 0.418 v -0.219 c 0.116,0.155 0.299,0.251 0.521,0.251 0.398,0 0.672,-0.289 0.672,-0.685 V -1.656 H 1.193 v 0.929 c 0,0.222 -0.161,0.38 -0.386,0.38 -0.225,0 -0.389,-0.158 -0.389,-0.38 V -1.656 H 0 Z"
         id="path16"
         inkscape:connector-curvature="0"
         style="fill:#f59b2d;fill-opacity:1" />
    </g>
    <g
       transform="translate(294.06,611.89)"
       id="g22"
       style="fill:#f59b2d;fill-opacity:1">
      <path
         d="M 0,0 C 0.257,0 0.453,0.206 0.453,0.479 0.453,0.749 0.257,0.955 0,0.955 -0.257,0.955 -0.45,0.749 -0.45,0.479 -0.45,0.206 -0.257,0 0,0 m 0,1.337 c 0.501,0 0.884,-0.373 0.884,-0.858 0,-0.489 -0.383,-0.862 -0.884,-0.862 -0.501,0 -0.884,0.373 -0.884,0.862 0,0.485 0.383,0.858 0.884,0.858"
         id="path20"
         inkscape:connector-curvature="0"
         style="fill:#f59b2d;fill-opacity:1" />
    </g>
    <g
       transform="translate(294.93,613.19)"
       id="g26"
       style="fill:#f59b2d;fill-opacity:1">
      <path
         d="M 0,0 H 0.45 L 0.907,-1.218 1.366,0 H 1.787 L 1.128,-1.656 H 0.659 Z"
         id="path24"
         inkscape:connector-curvature="0"
         style="fill:#f59b2d;fill-opacity:1" />
    </g>
    <g
       transform="translate(297.59,611.89)"
       id="g30"
       style="fill:#f59b2d;fill-opacity:1">
      <path
         d="M 0,0 C 0.257,0 0.453,0.206 0.453,0.479 0.453,0.749 0.257,0.955 0,0.955 -0.257,0.955 -0.45,0.749 -0.45,0.479 -0.45,0.206 -0.257,0 0,0 m 0.453,-0.145 c -0.131,-0.148 -0.315,-0.238 -0.537,-0.238 -0.453,0 -0.8,0.373 -0.8,0.862 0,0.485 0.347,0.858 0.8,0.858 0.222,0 0.406,-0.09 0.537,-0.241 V 1.305 H 0.871 V -0.35 H 0.453 Z"
         id="path28"
         inkscape:connector-curvature="0"
         style="fill:#f59b2d;fill-opacity:1" />
    </g>
    <g
       transform="translate(292.36,608.98)"
       id="g34"
       style="fill:#f59b2d;fill-opacity:1">
      <path
         d="M 0,0 H 0.748 L 0.374,0.992 Z m -0.022,1.834 h 0.845 l 1.224,-3.116 h -0.81 l -0.236,0.614 h -1.25 l -0.232,-0.614 h -0.765 z"
         id="path32"
         inkscape:connector-curvature="0"
         style="fill:#f59b2d;fill-opacity:1" />
    </g>
    <g
       transform="translate(296.06,610.86)"
       id="g38"
       style="fill:#f59b2d;fill-opacity:1">
      <path
         d="M 0,0 C 0.739,0 1.26,-0.445 1.469,-0.903 L 0.766,-1.17 C 0.637,-0.908 0.36,-0.694 0,-0.694 c -0.49,0 -0.863,-0.397 -0.863,-0.908 0,-0.512 0.373,-0.908 0.863,-0.908 0.36,0 0.637,0.213 0.766,0.476 L 1.469,-2.301 C 1.26,-2.76 0.739,-3.205 0,-3.205 c -0.93,0 -1.647,0.699 -1.647,1.603 C -1.647,-0.699 -0.93,0 0,0"
         id="path36"
         inkscape:connector-curvature="0"
         style="fill:#f59b2d;fill-opacity:1" />
    </g>
    <g
       transform="translate(298.68,610.15)"
       id="g42"
       style="fill:#f59b2d;fill-opacity:1">
      <path
         d="M 0,0 H -0.912 V 0.668 H 1.669 V 0 H 0.757 V -2.448 H 0 Z"
         id="path40"
         inkscape:connector-curvature="0"
         style="fill:#f59b2d;fill-opacity:1" />
    </g>
    <path
       d="m 300.66,610.82 h 0.757 v -3.116 h -0.757 z"
       id="path44"
       inkscape:connector-curvature="0"
       style="fill:#f59b2d;fill-opacity:1" />
    <g
       transform="translate(303.51,608.35)"
       id="g48"
       style="fill:#f59b2d;fill-opacity:1">
      <path
         d="M 0,0 C 0.49,0 0.863,0.396 0.863,0.908 0.863,1.42 0.49,1.816 0,1.816 -0.49,1.816 -0.863,1.42 -0.863,0.908 -0.863,0.396 -0.49,0 0,0 M 0,2.51 C 0.93,2.51 1.647,1.812 1.647,0.908 1.647,0.005 0.93,-0.694 0,-0.694 c -0.93,0 -1.647,0.699 -1.647,1.602 0,0.904 0.717,1.602 1.647,1.602"
         id="path46"
         inkscape:connector-curvature="0"
         style="fill:#f59b2d;fill-opacity:1" />
    </g>
    <g
       transform="translate(305.61,610.82)"
       id="g52"
       style="fill:#f59b2d;fill-opacity:1">
      <path
         d="M 0,0 H 0.734 L 2.092,-1.843 V 0 H 2.849 V -3.116 H 2.114 L 0.757,-1.273 V -3.116 H 0 Z"
         id="path50"
         inkscape:connector-curvature="0"
         style="fill:#f59b2d;fill-opacity:1" />
    </g>
  </g>
  <path
     style="fill:#f59b2d;stroke-width:0.98953998;fill-opacity:1"
     inkscape:connector-curvature="0"
     id="path58"
     d="m 137.53978,18.265281 h 2.9825 v 4.8289 h 5.2752 v -4.8289 h 2.9825 v 12.3 h -2.9825 v -4.8388 h -5.2752 v 4.8388 h -2.9825 z" />
  <path
     style="fill:#f59b2d;stroke-width:0.98953998;fill-opacity:1"
     inkscape:connector-curvature="0"
     id="path60"
     d="m 156.26978,27.923581 c 2.0939,0 3.4772,-1.4744 3.4772,-3.5129 0,-2.0582 -1.3834,-3.5129 -3.4772,-3.5129 h -1.8603 v 7.0257 z m -4.8517,-9.6579 h 5.112 c 3.6573,0 6.3083,2.6717 6.3083,6.145 0,3.4733 -2.651,6.145 -6.3083,6.145 h -5.112 z" />
</svg>
